svgs/sharp-solid/object-group.svg

<svg xmlns="http://www.w3.org/2000/svg" viewBox="0 0 576 512"><!--! Font Awesome Pro 6.6.0 by @fontawesome - https://fontawesome.com License - https://fontawesome.com/license (Commercial License) Copyright 2024 Fonticons, Inc. --><path d="M0 128L0 64 0 0 64 0l64 0 0 32 320 0 0-32 64 0 64 0 0 64 0 64-32 0 0 256 32 0 0 64 0 64-64 0-64 0 0-32-320 0 0 32-64 0L0 512l0-64 0-64 32 0 0-256L0 128zM96 416l384 0 0-320L96 96l0 320zm32-288l192 0 0 160-192 0 0-160zM256 320l64 0 32 0 0-32 0-64 96 0 0 160-192 0 0-64z"/></svg>

<svg xmlns="http://www.w3.org/2000/svg" viewBox="0 0 576 512"><!--! Font Awesome Pro 6.4.0 by @fontawesome - https://fontawesome.com License - https://fontawesome.com/license (Commercial License) Copyright 2023 Fonticons, Inc. --><path d="M0 128V64 0H64h64V32H448V0h64 64V64v64H544V384h32v64 64H512 448V480H128v32H64 0V448 384H32V128H0zM96 416H480V96H96V416zm32-288H320V288H128V128zM256 320h64 32V288 224h96V384H256V320z"/></svg>
